Adwaita++/actions/22/preview-remove-all.svg

<svg fill="none" height="22" viewBox="0 0 22 22" width="22" xmlns="http://www.w3.org/2000/svg">
  <path d="m8.2 13.6142 1.4142 1.4142-1.4142 1.4142 1.4142 1.4142 1.4142-1.4142 1.4142 1.4142 1.4143-1.4142-1.4143-1.4142 1.4143-1.4142-1.4143-1.4142-1.4142 1.4142-1.4142-1.4142z" fill="#e01b24"/>
  <path clip-rule="evenodd" d="m7 5h2v4h1v-2h2v2h1v-2h2v2h1v-4h2v4h1v2h-16v-2h1v-2h2v2h1z" fill="#444" fill-rule="evenodd"/>
</svg>

<svg xmlns="http://www.w3.org/2000/svg" fill="none" width="22" height="22" viewBox="0 0 22 22">
 <path fill="#E01B24" d="M8.2 13.6142L9.6142 15.0284L8.2 16.4426L9.6142 17.8568L11.0284 16.4426L12.4426 17.8568L13.8569 16.4426L12.4426 15.0284L13.8569 13.6142L12.4426 12.2L11.0284 13.6142L9.6142 12.2L8.2 13.6142Z"/>
 <path fill="#444" fill-rule="evenodd" d="M7 5H9V9H10V7H12V9H13V7H15V9H16V5H18V9H19V11H3V9H4V7H6V9H7V5Z" clip-rule="evenodd"/>
</svg>
